X: 131390
T: McKenna's
S: "Fiddlecase" (#49)
L: 1/8
M: 6/8
R: jig
K: D
dd/c/d AFD|DFA ECA,|DFA dfa|ged cBc|
dd/c/d AFD|DFA ECA,|DFA dfa|1 gec d3 :|2\ 
gec d2||
g|fed f/g/af|ged cde|fdB gec|dcB AFA|
dd/c/d afd|BB/A/B gec|dd/c/d AFD|A,CE D2 :|
